dist/img/svg/school.svg

<svg width="65" height="65" viewBox="0 0 65 65" fill="none" xmlns="http://www.w3.org/2000/svg">
<path d="M37.4464 15.8436L20.3077 0.482549C19.5861 -0.16085 18.5001 -0.16085 17.7785 0.482549L0.639869 15.8436C-0.6651 17.0009 0.160361 19.1706 1.90447 19.1706H36.1818C37.926 19.1706 38.7513 17.0008 37.4464 15.8436Z" fill="#AA0DDA"/>
<path d="M36.1818 61.1914H34.2774C34.2774 47.2824 34.2774 36.479 34.2774 22.979H3.80879C3.80879 36.4766 3.80879 47.2831 3.80879 61.1914H1.90447C0.851884 61.1914 0.000143673 62.0431 0.000143673 63.0957C0.000143673 64.1483 0.851884 65 1.90447 65H5.71311C6.76569 65 7.61743 64.1483 7.61743 63.0957V53.5743H11.4261V63.0957C11.4261 64.1483 12.2778 65 13.3304 65C14.383 65 15.2347 64.1483 15.2347 63.0957V61.1914H22.8519V63.0957C22.8519 64.1483 23.7036 65 24.7562 65C25.8088 65 26.6605 64.1483 26.6605 63.0957V53.5743H30.4692V63.0957C30.4692 64.1483 31.3209 65 32.3735 65H36.1821C37.2347 65 38.0865 64.1483 38.0865 63.0957C38.0861 62.0431 37.2343 61.1914 36.1818 61.1914ZM11.426 49.7659H7.61731V45.9573H11.426V49.7659ZM22.8518 57.3829H15.2346V53.5743H22.8518V57.3829ZM22.8518 49.7659H15.2346V45.9573H22.8518V49.7659ZM19.0431 42.0219C14.8421 42.0219 11.426 38.6057 11.426 34.4048C11.426 30.2038 14.8422 26.7877 19.0431 26.7877C23.2442 26.7877 26.6603 30.2039 26.6603 34.4048C26.6603 38.6057 23.2442 42.0219 19.0431 42.0219ZM30.4689 49.7659H26.6603V45.9573H30.4689V49.7659Z" fill="#AA0DDA"/>
<path d="M61.1915 57.3829H54.4715C52.9428 57.3829 51.5686 56.4773 50.9716 55.0751L46.7669 41.3298C45.208 37.691 41.9095 35.174 38.086 34.5587V42.2053C39.1248 42.534 39.9936 43.4201 40.4347 44.4564L45.6287 60.3823C46.832 63.1867 49.5787 64.9997 52.6303 64.9997H61.1914C63.2909 64.9997 65 63.2907 65 61.1912C65 59.0916 63.2911 57.3829 61.1915 57.3829Z" fill="#AA0DDA"/>
</svg>

<svg width="65" height="65" fill="none" xmlns="http://www.w3.org/2000/svg"><path d="M37.446 15.844L20.308.483a1.898 1.898 0 00-2.53 0L.64 15.843c-1.305 1.158-.48 3.328 1.264 3.328h34.278c1.744 0 2.57-2.17 1.264-3.327zm-1.264 45.347h-1.905V22.98H3.81v38.212H1.904a1.903 1.903 0 100 3.809h3.81a1.903 1.903 0 001.903-1.904v-9.522h3.81v9.522a1.903 1.903 0 103.808 0V61.19h7.617v1.905a1.903 1.903 0 103.808 0v-9.522h3.81v9.522c0 1.052.85 1.904 1.904 1.904h3.808a1.903 1.903 0 100-3.809zM11.426 49.766H7.617v-3.809h3.809v3.809zm11.426 7.617h-7.617v-3.809h7.617v3.809zm0-7.617h-7.617v-3.809h7.617v3.809zm-3.809-7.744c-4.2 0-7.617-3.416-7.617-7.617 0-4.201 3.416-7.617 7.617-7.617 4.201 0 7.617 3.416 7.617 7.617 0 4.2-3.416 7.617-7.617 7.617zm11.426 7.744H26.66v-3.809h3.809v3.809zm30.722 7.617h-6.72a3.796 3.796 0 01-3.5-2.308L46.768 41.33a11.405 11.405 0 00-8.681-6.771v7.646c1.039.329 1.908 1.215 2.349 2.251l5.194 15.926a7.61 7.61 0 007 4.618h8.561c2.1 0 3.809-1.71 3.809-3.81s-1.709-3.808-3.809-3.808z" fill="#AA0DDA"/></svg>
